build/documents/DocFinishedSolid.svg

<svg xmlns="http://www.w3.org/2000/svg" fill="none" viewBox="0 0 24 24" focusable="false"><path d="M0 0H24V24H0z"/><path fill="#74767B" fill-rule="evenodd" d="M20.0001 6C20.0001 4.34315 18.6569 3 17.0001 3L7.00684 3C5.34998 3 4.00684 4.34315 4.00684 6L4.00684 18C4.00684 19.6569 5.34998 21 7.00684 21L17.0001 21C18.6569 21 20.0001 19.6569 20.0001 18L20.0001 6ZM8.69859 8.21467C8.82049 8.09277 8.98582 8.02429 9.15821 8.02429L14.8957 8.02429C15.1346 8.02429 15.3543 8.15533 15.4677 8.36555C15.5812 8.57577 15.5702 8.83129 15.4391 9.031L14.1398 11.0102L15.4396 12.9964C15.5703 13.1961 15.581 13.4515 15.4675 13.6615C15.354 13.8714 15.1345 14.0023 14.8957 14.0023L9.80821 14.0023L9.80821 15.4075C9.80821 15.7665 9.51719 16.0575 9.15821 16.0575C8.79922 16.0575 8.50821 15.7665 8.50821 15.4075L8.50821 8.67429C8.50821 8.5019 8.57669 8.33657 8.69859 8.21467Z"/></svg>

<svg xmlns="http://www.w3.org/2000/svg" fill="none" viewBox="0 0 24 24" focusable="false"><path fill="#74767B" fill-rule="evenodd" d="M20 6c0-1.66-1.35-3-3-3H7C5.35 3 4 4.34 4 6v12c0 1.65 1.35 3 3 3h10c1.65 0 3-1.35 3-3zM8.69 8.21c.13-.12.29-.19.46-.19h5.74c.24 0 .46.13.57.34.12.21.11.47-.03.67l-1.3 1.98 1.3 1.98c.14.2.15.46.03.67a.64.64 0 0 1-.57.34H9.8v1.4c0 .36-.29.65-.65.65s-.65-.29-.65-.65V8.67c0-.17.07-.34.19-.46"/></svg>
